public/printlg.svg

<svg xmlns="http://www.w3.org/2000/svg" xmlns:xlink="http://www.w3.org/1999/xlink" width="1201" height="615" fill="none" xmlns:v="https://vecta.io/nano"><g stroke="#1bfcb6" stroke-width="3"><path d="M1007.77 178.491h16.48m-16.48 16.486h72.53m-72.53 13.188h72.53m-72.53 13.189h72.53m-92.316 65.943V153.52a8 8 0 0 1 8-8h81.006a8.01 8.01 0 0 1 5.66 2.343l18.39 18.394c1.5 1.5 2.34 3.535 2.34 5.656v115.384m0-59.349h52.68c5.11 0 8.92 4.74 7.8 9.736l-11.02 49.613m-168.156-59.349h-52.673c-5.118 0-8.92 4.74-7.81 9.736l11.026 49.613m23.085 174.748v-48.052c0-4.418 3.582-8 8.001-8h158.747a8 8 0 0 1 8 8v48.052m-237.396-72.537H1199m-65.94-38.16v.486a8 8 0 0 1-8 8H966.31a8 8 0 0 1-8-8v-.486a8 8 0 0 1 8-8h158.75a8 8 0 0 1 8 8z"/><path d="M895.664 454.045V295.297a8 8 0 0 1 8-8H1191a8 8 0 0 1 8 8v158.748a8 8 0 0 1-8 8H903.664a8 8 0 0 1-8-8z"/><circle cx="1126.47" cy="313.674" r="11.689"/></g><g stroke="#75f7bb" stroke-linejoin="round"><path d="M76.863 486.772h461.154" stroke-width="3" stroke-linecap="round"/><path d="M128.102 179.337a25.62 25.62 0 0 1 25.619-25.619h307.436a25.62 25.62 0 0 1 25.62 25.619v204.957a25.62 25.62 0 0 1-25.62 25.62H153.721a25.62 25.62 0 0 1-25.619-25.62V179.337z" stroke-width="3"/></g><path d="M288.739 176.239H155.871c-7.18 0-13 5.82-13 13v188.303c0 7.18 5.82 13 13 13h132.868c7.18 0 13-5.82 13-13V189.239c0-7.18-5.82-13-13-13z" fill="#fff"/><g stroke="#000"><path d="M155.043 252.969h134.869m-134.869 22.309h134.869"/><path d="M155.043 299.615H289.912" stroke-dasharray="9 9"/><path d="M155.043 325.98H289.912"/></g><rect x="154.367" y="195.506" width="123.714" height="6.084" rx="3.042" fill="url(#A)"/><rect x="154.367" y="210.378" width="78.42" height="6.084" rx="3.042" fill="url(#B)"/><rect x="154.367" y="238.772" width="56.787" height="6.084" rx="3.042" fill="url(#C)"/><rect x="154.367" y="261.081" width="56.787" height="6.084" rx="3.042" fill="url(#D)"/><rect x="154.367" y="311.784" width="56.787" height="6.084" rx="3.042" fill="url(#E)"/><rect x="154.367" y="283.39" width="56.787" height="6.084" rx="3.042" fill="url(#F)"/><rect x="154.367" y="334.093" width="56.787" height="6.084" rx="3.042" fill="url(#G)"/><rect x="203.715" y="358.43" width="37.858" height="4.056" rx="2.028" fill="url(#H)"/><rect x="212.5" y="366.543" width="20.957" height="4.056" rx="2.028" fill="url(#I)"/><rect x="259.152" y="238.772" width="31.098" height="6.084" rx="3.042" fill="url(#J)"/><rect x="259.152" y="261.081" width="31.098" height="6.084" rx="3.042" fill="url(#K)"/><rect x="259.152" y="311.784" width="31.098" height="6.084" rx="3.042" fill="url(#L)"/><rect x="259.152" y="283.39" width="31.098" height="6.084" rx="3.042" fill="url(#M)"/><rect x="259.152" y="334.093" width="31.098" height="6.084" rx="3.042" fill="url(#N)"/><path d="M456.165 176.239H323.297c-7.18 0-13 5.82-13 13v188.303c0 7.18 5.82 13 13 13h132.868c7.18 0 13-5.82 13-13V189.239c0-7.18-5.82-13-13-13z" fill="#fff"/><g stroke="#000"><path d="M322.469 252.969h134.869m-134.869 22.309h134.869"/><path d="M322.469 299.615H457.338" stroke-dasharray="9 9"/><path d="M322.469 325.98H457.338"/></g><rect x="321.793" y="195.506" width="123.714" height="6.084" rx="3.042" fill="url(#O)"/><rect x="321.793" y="210.378" width="78.42" height="6.084" rx="3.042" fill="url(#P)"/><rect x="321.793" y="238.772" width="56.787" height="6.084" rx="3.042" fill="url(#Q)"/><rect x="321.793" y="261.081" width="56.787" height="6.084" rx="3.042" fill="url(#R)"/><rect x="321.793" y="311.784" width="56.787" height="6.084" rx="3.042" fill="url(#S)"/><rect x="321.793" y="283.39" width="56.787" height="6.084" rx="3.042" fill="url(#T)"/><rect x="321.793" y="334.093" width="56.787" height="6.084" rx="3.042" fill="url(#U)"/><rect x="371.141" y="358.43" width="37.858" height="4.056" rx="2.028" fill="url(#V)"/><rect x="379.926" y="366.543" width="20.957" height="4.056" rx="2.028" fill="url(#W)"/><rect x="426.578" y="238.772" width="31.098" height="6.084" rx="3.042" fill="url(#X)"/><rect x="426.578" y="261.081" width="31.098" height="6.084" rx="3.042" fill="url(#Y)"/><rect x="426.578" y="311.784" width="31.098" height="6.084" rx="3.042" fill="url(#Z)"/><rect x="426.578" y="283.39" width="31.098" height="6.084" rx="3.042" fill="url(#a)"/><rect x="426.578" y="334.093" width="31.098" height="6.084" rx="3.042" fill="url(#b)"/><g stroke-width="3"><path d="M308.848 111.718V81.76c0-13.807 11.193-25 25-25h246.69m459.012 54.958V81.76c0-13.807-11.19-25-25-25H767.86" stroke="#75f7bb" stroke-linecap="round" stroke-dasharray="14 14"/><g stroke="#1bfcb6" fill="#0f1546"><rect x="616.098" y="7.947" width="81.622" height="80.523" rx="6.5"/><rect x="632.582" y="24.432" width="81.622" height="80.523" rx="6.5"/></g><g stroke="#75f7bb" stroke-linecap="round"><path d="M657.457 63.595h32.97"/><path d="M673.941 80.079V47.11"/></g></g><defs><linearGradient id="A" x1="156.733" y1="198.21" x2="260.167" y2="198.21" xlink:href="#c"><stop stop-color="#0f1546"/><stop offset="1" stop-color="#fff" stop-opacity="0"/></linearGradient><linearGradient id="B" x1="155.867" y1="213.083" x2="221.431" y2="213.083" xlink:href="#c"><stop stop-color="#0f1546"/><stop offset="1" stop-color="#fff" stop-opacity="0"/></linearGradient><linearGradient id="C" x1="155.453" y1="241.476" x2="202.931" y2="241.476" xlink:href="#c"><stop stop-color="#0f1546"/><stop offset="1" stop-color="#fff" stop-opacity="0"/></linearGradient><linearGradient id="D" x1="155.453" y1="263.785" x2="202.931" y2="263.785" xlink:href="#c"><stop stop-color="#0f1546"/><stop offset="1" stop-color="#fff" stop-opacity="0"/></linearGradient><linearGradient id="E" x1="155.453" y1="314.488" x2="202.931" y2="314.488" xlink:href="#c"><stop stop-color="#0f1546"/><stop offset="1" stop-color="#fff" stop-opacity="0"/></linearGradient><linearGradient id="F" x1="155.453" y1="286.095" x2="202.931" y2="286.095" xlink:href="#c"><stop stop-color="#0f1546"/><stop offset="1" stop-color="#fff" stop-opacity="0"/></linearGradient><linearGradient id="G" x1="155.453" y1="336.797" x2="202.931" y2="336.797" xlink:href="#c"><stop stop-color="#0f1546"/><stop offset="1" stop-color="#fff" stop-opacity="0"/></linearGradient><linearGradient id="H" x1="204.439" y1="360.233" x2="236.091" y2="360.233" xlink:href="#c"><stop stop-color="#0f1546"/><stop offset="1" stop-color="#fff" stop-opacity="0"/></linearGradient><linearGradient id="I" x1="212.901" y1="368.345" x2="230.422" y2="368.345" xlink:href="#c"><stop stop-color="#0f1546"/><stop offset="1" stop-color="#fff" stop-opacity="0"/></linearGradient><linearGradient id="J" x1="259.747" y1="241.476" x2="285.747" y2="241.476" xlink:href="#c"><stop stop-color="#0f1546"/><stop offset="1" stop-color="#fff" stop-opacity="0"/></linearGradient><linearGradient id="K" x1="259.747" y1="263.785" x2="285.747" y2="263.785" xlink:href="#c"><stop stop-color="#0f1546"/><stop offset="1" stop-color="#fff" stop-opacity="0"/></linearGradient><linearGradient id="L" x1="259.747" y1="314.488" x2="285.747" y2="314.488" xlink:href="#c"><stop stop-color="#0f1546"/><stop offset="1" stop-color="#fff" stop-opacity="0"/></linearGradient><linearGradient id="M" x1="259.747" y1="286.095" x2="285.747" y2="286.095" xlink:href="#c"><stop stop-color="#0f1546"/><stop offset="1" stop-color="#fff" stop-opacity="0"/></linearGradient><linearGradient id="N" x1="259.747" y1="336.797" x2="285.747" y2="336.797" xlink:href="#c"><stop stop-color="#0f1546"/><stop offset="1" stop-color="#fff" stop-opacity="0"/></linearGradient><linearGradient id="O" x1="324.159" y1="198.21" x2="427.592" y2="198.21" xlink:href="#c"><stop stop-color="#0f1546"/><stop offset="1" stop-color="#fff" stop-opacity="0"/></linearGradient><linearGradient id="P" x1="323.293" y1="213.083" x2="388.857" y2="213.083" xlink:href="#c"><stop stop-color="#0f1546"/><stop offset="1" stop-color="#fff" stop-opacity="0"/></linearGradient><linearGradient id="Q" x1="322.879" y1="241.476" x2="370.357" y2="241.476" xlink:href="#c"><stop stop-color="#0f1546"/><stop offset="1" stop-color="#fff" stop-opacity="0"/></linearGradient><linearGradient id="R" x1="322.879" y1="263.785" x2="370.357" y2="263.785" xlink:href="#c"><stop stop-color="#0f1546"/><stop offset="1" stop-color="#fff" stop-opacity="0"/></linearGradient><linearGradient id="S" x1="322.879" y1="314.488" x2="370.357" y2="314.488" xlink:href="#c"><stop stop-color="#0f1546"/><stop offset="1" stop-color="#fff" stop-opacity="0"/></linearGradient><linearGradient id="T" x1="322.879" y1="286.095" x2="370.357" y2="286.095" xlink:href="#c"><stop stop-color="#0f1546"/><stop offset="1" stop-color="#fff" stop-opacity="0"/></linearGradient><linearGradient id="U" x1="322.879" y1="336.797" x2="370.357" y2="336.797" xlink:href="#c"><stop stop-color="#0f1546"/><stop offset="1" stop-color="#fff" stop-opacity="0"/></linearGradient><linearGradient id="V" x1="371.865" y1="360.233" x2="403.516" y2="360.233" xlink:href="#c"><stop stop-color="#0f1546"/><stop offset="1" stop-color="#fff" stop-opacity="0"/></linearGradient><linearGradient id="W" x1="380.327" y1="368.345" x2="397.848" y2="368.345" xlink:href="#c"><stop stop-color="#0f1546"/><stop offset="1" stop-color="#fff" stop-opacity="0"/></linearGradient><linearGradient id="X" x1="427.173" y1="241.476" x2="453.173" y2="241.476" xlink:href="#c"><stop stop-color="#0f1546"/><stop offset="1" stop-color="#fff" stop-opacity="0"/></linearGradient><linearGradient id="Y" x1="427.173" y1="263.785" x2="453.173" y2="263.785" xlink:href="#c"><stop stop-color="#0f1546"/><stop offset="1" stop-color="#fff" stop-opacity="0"/></linearGradient><linearGradient id="Z" x1="427.173" y1="314.488" x2="453.173" y2="314.488" xlink:href="#c"><stop stop-color="#0f1546"/><stop offset="1" stop-color="#fff" stop-opacity="0"/></linearGradient><linearGradient id="a" x1="427.173" y1="286.095" x2="453.173" y2="286.095" xlink:href="#c"><stop stop-color="#0f1546"/><stop offset="1" stop-color="#fff" stop-opacity="0"/></linearGradient><linearGradient id="b" x1="427.173" y1="336.797" x2="453.173" y2="336.797" xlink:href="#c"><stop stop-color="#0f1546"/><stop offset="1" stop-color="#fff" stop-opacity="0"/></linearGradient><linearGradient id="c" gradientUnits="userSpaceOnUse"/></defs></svg>

<svg width="1201" height="615" viewBox="0 0 1201 615" fill="none" xmlns="http://www.w3.org/2000/svg">
<path d="M1007.77 178.491H1024.25" stroke="#1BFCB6" stroke-width="3"/>
<path d="M1007.77 194.977H1080.3" stroke="#1BFCB6" stroke-width="3"/>
<path d="M1007.77 208.165H1080.3" stroke="#1BFCB6" stroke-width="3"/>
<path d="M1007.77 221.354H1080.3" stroke="#1BFCB6" stroke-width="3"/>
<path d="M987.984 287.297V153.52C987.984 149.101 991.566 145.52 995.984 145.52H1076.99C1079.11 145.52 1081.15 146.363 1082.65 147.863L1101.04 166.257C1102.54 167.757 1103.38 169.792 1103.38 171.913V287.297" stroke="#1BFCB6" stroke-width="3"/>
<path d="M1103.38 227.948H1156.06C1161.17 227.948 1164.98 232.688 1163.86 237.684L1152.84 287.297" stroke="#1BFCB6" stroke-width="3"/>
<path d="M984.684 227.948H932.011C926.893 227.948 923.091 232.688 924.201 237.684L935.227 287.297" stroke="#1BFCB6" stroke-width="3"/>
<path d="M958.312 462.045V413.993C958.312 409.575 961.894 405.993 966.313 405.993H1125.06C1129.48 405.993 1133.06 409.575 1133.06 413.993V462.045" stroke="#1BFCB6" stroke-width="3"/>
<path d="M895.664 389.508H1199M1133.06 351.348V351.834C1133.06 356.252 1129.48 359.834 1125.06 359.834H966.31C961.891 359.834 958.31 356.252 958.31 351.834V351.348C958.31 346.93 961.891 343.348 966.31 343.348H1125.06C1129.48 343.348 1133.06 346.93 1133.06 351.348Z" stroke="#1BFCB6" stroke-width="3"/>
<path d="M895.664 454.045V295.297C895.664 290.878 899.246 287.297 903.664 287.297H1191C1195.42 287.297 1199 290.878 1199 295.297V454.045C1199 458.463 1195.42 462.045 1191 462.045H903.664C899.246 462.045 895.664 458.463 895.664 454.045Z" stroke="#1BFCB6" stroke-width="3"/>
<circle cx="1126.47" cy="313.674" r="11.6885" stroke="#1BFCB6" stroke-width="3"/>
<path d="M76.8633 486.772H538.017" stroke="#75F7BB" stroke-width="3" stroke-linecap="round" stroke-linejoin="round"/>
<path d="M128.102 179.337C128.102 172.543 130.801 166.026 135.605 161.222C140.41 156.417 146.926 153.718 153.721 153.718H461.157C467.952 153.718 474.468 156.417 479.273 161.222C484.077 166.026 486.777 172.543 486.777 179.337V384.294C486.777 391.089 484.077 397.606 479.273 402.41C474.468 407.215 467.952 409.914 461.157 409.914H153.721C146.926 409.914 140.41 407.215 135.605 402.41C130.801 397.606 128.102 391.089 128.102 384.294V179.337Z" stroke="#75F7BB" stroke-width="3" stroke-linecap="round" stroke-linejoin="round"/>
<path d="M288.739 176.239H155.871C148.691 176.239 142.871 182.059 142.871 189.239V377.542C142.871 384.722 148.691 390.542 155.871 390.542H288.739C295.919 390.542 301.739 384.722 301.739 377.542V189.239C301.739 182.059 295.919 176.239 288.739 176.239Z" fill="white"/>
<path d="M155.043 252.969H289.912" stroke="black"/>
<path d="M155.043 275.278H289.912" stroke="black"/>
<path d="M155.043 299.615H289.912" stroke="black" stroke-dasharray="9 9"/>
<path d="M155.043 325.98H289.912" stroke="black"/>
<rect x="154.367" y="195.506" width="123.714" height="6.08432" rx="3.04216" fill="url(#paint0_linear_730_6563)"/>
<rect x="154.367" y="210.378" width="78.4201" height="6.08432" rx="3.04216" fill="url(#paint1_linear_730_6563)"/>
<rect x="154.367" y="238.772" width="56.787" height="6.08432" rx="3.04216" fill="url(#paint2_linear_730_6563)"/>
<rect x="154.367" y="261.081" width="56.787" height="6.08432" rx="3.04216" fill="url(#paint3_linear_730_6563)"/>
<rect x="154.367" y="311.784" width="56.787" height="6.08432" rx="3.04216" fill="url(#paint4_linear_730_6563)"/>
<rect x="154.367" y="283.39" width="56.787" height="6.08432" rx="3.04216" fill="url(#paint5_linear_730_6563)"/>
<rect x="154.367" y="334.093" width="56.787" height="6.08432" rx="3.04216" fill="url(#paint6_linear_730_6563)"/>
<rect x="203.715" y="358.43" width="37.858" height="4.05621" rx="2.02811" fill="url(#paint7_linear_730_6563)"/>
<rect x="212.5" y="366.543" width="20.9571" height="4.05621" rx="2.02811" fill="url(#paint8_linear_730_6563)"/>
<rect x="259.152" y="238.772" width="31.0976" height="6.08432" rx="3.04216" fill="url(#paint9_linear_730_6563)"/>
<rect x="259.152" y="261.081" width="31.0976" height="6.08432" rx="3.04216" fill="url(#paint10_linear_730_6563)"/>
<rect x="259.152" y="311.784" width="31.0976" height="6.08432" rx="3.04216" fill="url(#paint11_linear_730_6563)"/>
<rect x="259.152" y="283.39" width="31.0976" height="6.08432" rx="3.04216" fill="url(#paint12_linear_730_6563)"/>
<rect x="259.152" y="334.093" width="31.0976" height="6.08432" rx="3.04216" fill="url(#paint13_linear_730_6563)"/>
<path d="M456.165 176.239H323.297C316.117 176.239 310.297 182.059 310.297 189.239V377.542C310.297 384.722 316.117 390.542 323.297 390.542H456.165C463.345 390.542 469.165 384.722 469.165 377.542V189.239C469.165 182.059 463.345 176.239 456.165 176.239Z" fill="white"/>
<path d="M322.469 252.969H457.338" stroke="black"/>
<path d="M322.469 275.278H457.338" stroke="black"/>
<path d="M322.469 299.615H457.338" stroke="black" stroke-dasharray="9 9"/>
<path d="M322.469 325.98H457.338" stroke="black"/>
<rect x="321.793" y="195.506" width="123.714" height="6.08432" rx="3.04216" fill="url(#paint14_linear_730_6563)"/>
<rect x="321.793" y="210.378" width="78.4201" height="6.08432" rx="3.04216" fill="url(#paint15_linear_730_6563)"/>
<rect x="321.793" y="238.772" width="56.787" height="6.08432" rx="3.04216" fill="url(#paint16_linear_730_6563)"/>
<rect x="321.793" y="261.081" width="56.787" height="6.08432" rx="3.04216" fill="url(#paint17_linear_730_6563)"/>
<rect x="321.793" y="311.784" width="56.787" height="6.08432" rx="3.04216" fill="url(#paint18_linear_730_6563)"/>
<rect x="321.793" y="283.39" width="56.787" height="6.08432" rx="3.04216" fill="url(#paint19_linear_730_6563)"/>
<rect x="321.793" y="334.093" width="56.787" height="6.08432" rx="3.04216" fill="url(#paint20_linear_730_6563)"/>
<rect x="371.141" y="358.43" width="37.858" height="4.05621" rx="2.02811" fill="url(#paint21_linear_730_6563)"/>
<rect x="379.926" y="366.543" width="20.9571" height="4.05621" rx="2.02811" fill="url(#paint22_linear_730_6563)"/>
<rect x="426.578" y="238.772" width="31.0976" height="6.08432" rx="3.04216" fill="url(#paint23_linear_730_6563)"/>
<rect x="426.578" y="261.081" width="31.0976" height="6.08432" rx="3.04216" fill="url(#paint24_linear_730_6563)"/>
<rect x="426.578" y="311.784" width="31.0976" height="6.08432" rx="3.04216" fill="url(#paint25_linear_730_6563)"/>
<rect x="426.578" y="283.39" width="31.0976" height="6.08432" rx="3.04216" fill="url(#paint26_linear_730_6563)"/>
<rect x="426.578" y="334.093" width="31.0976" height="6.08432" rx="3.04216" fill="url(#paint27_linear_730_6563)"/>
<path d="M308.848 111.718V81.7602C308.848 67.9531 320.041 56.7603 333.848 56.7603H580.538" stroke="#75F7BB" stroke-width="3" stroke-linecap="round" stroke-dasharray="14 14"/>
<path d="M1039.55 111.718V81.7602C1039.55 67.9531 1028.36 56.7603 1014.55 56.7603H767.86" stroke="#75F7BB" stroke-width="3" stroke-linecap="round" stroke-dasharray="14 14"/>
<rect x="616.098" y="7.94702" width="81.6223" height="80.5233" rx="6.5" fill="#0F1546" stroke="#1BFCB6" stroke-width="3"/>
<rect x="632.582" y="24.4319" width="81.6223" height="80.5233" rx="6.5" fill="#0F1546" stroke="#1BFCB6" stroke-width="3"/>
<path d="M657.457 63.5945H690.427" stroke="#75F7BB" stroke-width="3" stroke-linecap="round"/>
<path d="M673.941 80.0793L673.941 47.1096" stroke="#75F7BB" stroke-width="3" stroke-linecap="round"/>
<defs>
<linearGradient id="paint0_linear_730_6563" x1="156.733" y1="198.21" x2="260.167" y2="198.21" gradientUnits="userSpaceOnUse">
<stop stop-color="#0F1546"/>
<stop offset="1" stop-color="white" stop-opacity="0"/>
</linearGradient>
<linearGradient id="paint1_linear_730_6563" x1="155.867" y1="213.083" x2="221.431" y2="213.083" gradientUnits="userSpaceOnUse">
<stop stop-color="#0F1546"/>
<stop offset="1" stop-color="white" stop-opacity="0"/>
</linearGradient>
<linearGradient id="paint2_linear_730_6563" x1="155.453" y1="241.476" x2="202.931" y2="241.476" gradientUnits="userSpaceOnUse">
<stop stop-color="#0F1546"/>
<stop offset="1" stop-color="white" stop-opacity="0"/>
</linearGradient>
<linearGradient id="paint3_linear_730_6563" x1="155.453" y1="263.785" x2="202.931" y2="263.785" gradientUnits="userSpaceOnUse">
<stop stop-color="#0F1546"/>
<stop offset="1" stop-color="white" stop-opacity="0"/>
</linearGradient>
<linearGradient id="paint4_linear_730_6563" x1="155.453" y1="314.488" x2="202.931" y2="314.488" gradientUnits="userSpaceOnUse">
<stop stop-color="#0F1546"/>
<stop offset="1" stop-color="white" stop-opacity="0"/>
</linearGradient>
<linearGradient id="paint5_linear_730_6563" x1="155.453" y1="286.095" x2="202.931" y2="286.095" gradientUnits="userSpaceOnUse">
<stop stop-color="#0F1546"/>
<stop offset="1" stop-color="white" stop-opacity="0"/>
</linearGradient>
<linearGradient id="paint6_linear_730_6563" x1="155.453" y1="336.797" x2="202.931" y2="336.797" gradientUnits="userSpaceOnUse">
<stop stop-color="#0F1546"/>
<stop offset="1" stop-color="white" stop-opacity="0"/>
</linearGradient>
<linearGradient id="paint7_linear_730_6563" x1="204.439" y1="360.233" x2="236.091" y2="360.233" gradientUnits="userSpaceOnUse">
<stop stop-color="#0F1546"/>
<stop offset="1" stop-color="white" stop-opacity="0"/>
</linearGradient>
<linearGradient id="paint8_linear_730_6563" x1="212.901" y1="368.345" x2="230.422" y2="368.345" gradientUnits="userSpaceOnUse">
<stop stop-color="#0F1546"/>
<stop offset="1" stop-color="white" stop-opacity="0"/>
</linearGradient>
<linearGradient id="paint9_linear_730_6563" x1="259.747" y1="241.476" x2="285.747" y2="241.476" gradientUnits="userSpaceOnUse">
<stop stop-color="#0F1546"/>
<stop offset="1" stop-color="white" stop-opacity="0"/>
</linearGradient>
<linearGradient id="paint10_linear_730_6563" x1="259.747" y1="263.785" x2="285.747" y2="263.785" gradientUnits="userSpaceOnUse">
<stop stop-color="#0F1546"/>
<stop offset="1" stop-color="white" stop-opacity="0"/>
</linearGradient>
<linearGradient id="paint11_linear_730_6563" x1="259.747" y1="314.488" x2="285.747" y2="314.488" gradientUnits="userSpaceOnUse">
<stop stop-color="#0F1546"/>
<stop offset="1" stop-color="white" stop-opacity="0"/>
</linearGradient>
<linearGradient id="paint12_linear_730_6563" x1="259.747" y1="286.095" x2="285.747" y2="286.095" gradientUnits="userSpaceOnUse">
<stop stop-color="#0F1546"/>
<stop offset="1" stop-color="white" stop-opacity="0"/>
</linearGradient>
<linearGradient id="paint13_linear_730_6563" x1="259.747" y1="336.797" x2="285.747" y2="336.797" gradientUnits="userSpaceOnUse">
<stop stop-color="#0F1546"/>
<stop offset="1" stop-color="white" stop-opacity="0"/>
</linearGradient>
<linearGradient id="paint14_linear_730_6563" x1="324.159" y1="198.21" x2="427.592" y2="198.21" gradientUnits="userSpaceOnUse">
<stop stop-color="#0F1546"/>
<stop offset="1" stop-color="white" stop-opacity="0"/>
</linearGradient>
<linearGradient id="paint15_linear_730_6563" x1="323.293" y1="213.083" x2="388.857" y2="213.083" gradientUnits="userSpaceOnUse">
<stop stop-color="#0F1546"/>
<stop offset="1" stop-color="white" stop-opacity="0"/>
</linearGradient>
<linearGradient id="paint16_linear_730_6563" x1="322.879" y1="241.476" x2="370.357" y2="241.476" gradientUnits="userSpaceOnUse">
<stop stop-color="#0F1546"/>
<stop offset="1" stop-color="white" stop-opacity="0"/>
</linearGradient>
<linearGradient id="paint17_linear_730_6563" x1="322.879" y1="263.785" x2="370.357" y2="263.785" gradientUnits="userSpaceOnUse">
<stop stop-color="#0F1546"/>
<stop offset="1" stop-color="white" stop-opacity="0"/>
</linearGradient>
<linearGradient id="paint18_linear_730_6563" x1="322.879" y1="314.488" x2="370.357" y2="314.488" gradientUnits="userSpaceOnUse">
<stop stop-color="#0F1546"/>
<stop offset="1" stop-color="white" stop-opacity="0"/>
</linearGradient>
<linearGradient id="paint19_linear_730_6563" x1="322.879" y1="286.095" x2="370.357" y2="286.095" gradientUnits="userSpaceOnUse">
<stop stop-color="#0F1546"/>
<stop offset="1" stop-color="white" stop-opacity="0"/>
</linearGradient>
<linearGradient id="paint20_linear_730_6563" x1="322.879" y1="336.797" x2="370.357" y2="336.797" gradientUnits="userSpaceOnUse">
<stop stop-color="#0F1546"/>
<stop offset="1" stop-color="white" stop-opacity="0"/>
</linearGradient>
<linearGradient id="paint21_linear_730_6563" x1="371.865" y1="360.233" x2="403.516" y2="360.233" gradientUnits="userSpaceOnUse">
<stop stop-color="#0F1546"/>
<stop offset="1" stop-color="white" stop-opacity="0"/>
</linearGradient>
<linearGradient id="paint22_linear_730_6563" x1="380.327" y1="368.345" x2="397.848" y2="368.345" gradientUnits="userSpaceOnUse">
<stop stop-color="#0F1546"/>
<stop offset="1" stop-color="white" stop-opacity="0"/>
</linearGradient>
<linearGradient id="paint23_linear_730_6563" x1="427.173" y1="241.476" x2="453.173" y2="241.476" gradientUnits="userSpaceOnUse">
<stop stop-color="#0F1546"/>
<stop offset="1" stop-color="white" stop-opacity="0"/>
</linearGradient>
<linearGradient id="paint24_linear_730_6563" x1="427.173" y1="263.785" x2="453.173" y2="263.785" gradientUnits="userSpaceOnUse">
<stop stop-color="#0F1546"/>
<stop offset="1" stop-color="white" stop-opacity="0"/>
</linearGradient>
<linearGradient id="paint25_linear_730_6563" x1="427.173" y1="314.488" x2="453.173" y2="314.488" gradientUnits="userSpaceOnUse">
<stop stop-color="#0F1546"/>
<stop offset="1" stop-color="white" stop-opacity="0"/>
</linearGradient>
<linearGradient id="paint26_linear_730_6563" x1="427.173" y1="286.095" x2="453.173" y2="286.095" gradientUnits="userSpaceOnUse">
<stop stop-color="#0F1546"/>
<stop offset="1" stop-color="white" stop-opacity="0"/>
</linearGradient>
<linearGradient id="paint27_linear_730_6563" x1="427.173" y1="336.797" x2="453.173" y2="336.797" gradientUnits="userSpaceOnUse">
<stop stop-color="#0F1546"/>
<stop offset="1" stop-color="white" stop-opacity="0"/>
</linearGradient>
</defs>
</svg>
